!!!OTL: ES WOLLT EIN MAEDCHEN INS KLOSTER GEHN
!!!ARE: Europa, Mitteleuropa, Deutschland, Franken
!!!SCT: E0068A
!!!YEM: Copyright 1995, estate of Helmut Schaffrath.
**kern
*ICvox
*Ivox
*M2/4
*k[f#]
*G:
{8d
=1
8g
8g
8g
16g
16a
=2
8b
8b
8a}
{8b
=3
8cc
8b
8a
8g
=4
4a
8r}
{8dd
=5
8dd
8dd
8dd
16ee
16dd
=6
8dd
8cc
8r}
{16a
16b
=7
8cc
8cc
8cc
16dd
16cc
=8
8b
8a
8b}
{16g
16a
=9
8b
16dd
16cc
8b
8a
=10
4g
8r}
==
!!!AGN: erzaehlendes Volks - Lied, Sage, Liebe, Ballade ?
!!!ONB: ESAC (Essen Associative Code) Database: ERK1
!!!AMT: simple duple
!!!AIN: vox
!!!EED: Helmut Schaffrath
!!!EEV: 1.0
*-
